src/assets/icons/financial.svg

<svg width="24" height="24" viewBox="0 0 24 24" fill="none" xmlns="http://www.w3.org/2000/svg">
  <path d="M12.25 7.15C10.317 7.15 8.75 8.4036 8.75 9.95C8.75 11.4964 9.91667 12.75 12.25 12.75C14.5833 12.75 15.75 14.0036 15.75 15.55C15.75 17.0964 14.183 18.35 12.25 18.35M12.25 7.15C13.5455 7.15 14.6766 7.71308 15.2817 8.55M12.25 7.15V5.75M12.25 18.35L12.25 19.75M12.25 18.35C10.9545 18.35 9.82342 17.7869 9.21826 16.95" stroke="#314158" stroke-width="1.5" stroke-linecap="round"/>
</svg>

<svg fill="none" viewBox="0 0 24 24"><path stroke="currentColor" stroke-linecap="round" stroke-width="1.5" d="M12.25 7.15c-1.933 0-3.5 1.254-3.5 2.8s1.167 2.8 3.5 2.8 3.5 1.254 3.5 2.8-1.567 2.8-3.5 2.8m0-11.2c1.296 0 2.427.563 3.032 1.4m-3.032-1.4v-1.4m0 12.6v1.4m0-1.4c-1.296 0-2.427-.563-3.032-1.4"/></svg>
